modules/hawcons-stroke/icons/icon-23-cloud-error.svg

<?xml version="1.0" encoding="UTF-8" standalone="no"?>
<svg width="32px" height="32px" viewBox="0 0 32 32" version="1.1" xmlns="http://www.w3.org/2000/svg" xmlns:xlink="http://www.w3.org/1999/xlink" xmlns:sketch="http://www.bohemiancoding.com/sketch/ns">
    <!-- Generator: Sketch 3.0.3 (7891) - http://www.bohemiancoding.com/sketch -->
    <title>icon 23 cloud error</title>
    <desc>Created with Sketch.</desc>
    <defs></defs>
    <g id="Page-1" stroke="none" stroke-width="1" fill="none" fill-rule="evenodd" sketch:type="MSPage">
        <g id="icon-23-cloud-error" sketch:type="MSArtboardGroup" fill="#929292">
            <path d="M7.10100919,16.1021544 C5.32460991,16.5117359 4,18.1046097 4,20 C4,22.209139 5.79793835,24 8.00281647,24 L24.9971835,24 C27.207878,24 29,22.2046438 29,20 C29,18.1225574 27.70144,16.5472159 25.9581226,16.1164746 L25.9581226,16.1164746 C25.9857342,15.9149284 26,15.7091302 26,15.5 C26,13.0147185 23.9852815,11 21.5,11 C20.2744589,11 19.1633432,11.489913 18.3518132,12.2845787 C17.3608691,10.3354059 15.336385,9 13,9 C9.68629134,9 7,11.6862913 7,15 C7,15.3764904 7.03467626,15.7448817 7.10100919,16.1021544 L7.10100919,16.1021544 L7.10100919,16.1021544 Z M26.9993494,15.4145295 C28.7676457,16.1852931 30,17.9483386 30,20 C30,22.7558048 27.7616745,25 25.0005601,25 L7.99943992,25 C5.23249418,25 3,22.7614237 3,20 C3,17.9491311 4.23965876,16.1816085 6.01189661,15.4115388 L6.01189661,15.4115388 C6.00400207,15.275367 6,15.1381509 6,15 C6,11.1340066 9.13400656,8 13,8 C15.2979469,8 17.3372745,9.10728055 18.6135384,10.8173973 C19.4525719,10.299097 20.441357,10 21.5,10 C24.5090248,10 26.9536744,12.4163763 26.9993494,15.4145295 L26.9993494,15.4145295 L26.9993494,15.4145295 Z M16.5,14 C16.2238576,14 16,14.2278805 16,14.4910052 L16,19.5089948 C16,19.7801695 16.2319336,20 16.5,20 C16.7761424,20 17,19.7721195 17,19.5089948 L17,14.4910052 C17,14.2198305 16.7680664,14 16.5,14 L16.5,14 Z M16.5,22 C16.2238576,22 16,21.7680664 16,21.5 C16,21.2238576 16.2319336,21 16.5,21 C16.7761424,21 17,21.2319336 17,21.5 C17,21.7761424 16.7680664,22 16.5,22 L16.5,22 Z" id="cloud-error" sketch:type="MSShapeGroup"></path>
        </g>
    </g>
</svg>

<svg width="32" height="32" xmlns="http://www.w3.org/2000/svg"><path d="M7.101 16.102A4.006 4.006 0 0 0 4 20c0 2.21 1.798 4 4.003 4h16.994A4.004 4.004 0 0 0 29 20a4.006 4.006 0 0 0-3.042-3.884 4.5 4.5 0 0 0-7.606-3.832 6 6 0 0 0-11.25 3.818H7.1zm19.898-.687C28.768 16.185 30 17.948 30 20c0 2.756-2.238 5-5 5H8c-2.768 0-5-2.239-5-5 0-2.05 1.24-3.818 3.012-4.588a7 7 0 0 1 12.602-4.594A5.5 5.5 0 0 1 27 15.414zM16.5 14a.5.5 0 0 0-.5.491v5.018a.5.5 0 0 0 1 0v-5.018a.5.5 0 0 0-.5-.491zm0 8a.505.505 0 0 1-.5-.5c0-.276.232-.5.5-.5.276 0 .5.232.5.5 0 .276-.232.5-.5.5z" fill="#929292" fill-rule="evenodd"/></svg>
